X:1
T:Title
%%score { ( 1 3 ) | ( 2 4 ) }
L:1/8
M:6/8
K:C
V:1 treble nm="Grand Piano"
V:3 treble 
V:2 bass 
V:4 bass 
V:1
 z3 z2[Q:1/4=87] [EG] | [EG]2 [FA] [EG]2 [EGc] | cBA B2 A | G2 G A2 B | [Ec]3- [Ec]2 [EG] | %5
 [EG]2 [FA] [EG]2 [EGc] | c2 B B2 c | d2 d A2 G | [Ec]3- [Ec]2 E | E2 E F2 F | F2 F E2 E | %11
 G2 D [B,D][CE][DF] | [CE]3- [CE]2 [EG] | [Ec]2 [Ec] [Ge]2 [Ec] |[M:7/8] A2 c G3 E | %15
[M:13/16] [CEG]-<[CEG][G,CE].D3/2 z [G,DF] |[M:5/8] [G,CE]-[G,CE]- [G,CE]3 |] %17
V:2
 z3 z2 [C,C] | [C,C]2 [C,C] [C,C]2 C, | [G,DF]2 [G,DF] [G,DF]2 [G,CF] | %3
 [G,B,F]2 [G,B,F] [G,CF]2 [G,DF] | [C,C]3- [C,C]2 [C,C] | [C,C]2 [C,C] [C,C]2 C, | %6
 [G,DF]2 [G,DF] [G,DF]2 [G,EG] | [G,B,F]2 [G,B,F] [G,CF]2 [G,DF] | [C,C]3- [C,C]2 [C,G,C] | %9
 [C,G,C]2 [C,G,C] [C,A,C]2 [C,A,C] | [C,A,C]2 [C,^G,C] [C,=G,C]2 [C,G,C] | %11
 [G,B,D]2 [G,B,] [G,,G,]2 [G,,G,] | [C,G,]3- [C,G,]2 [C,G,] | [C,G,]2 [C,G,] [C,C]2 [C,C] | %14
[M:7/8][K:treble] [F,CF]2 [A,CF] [CE]3[K:bass] [C,G,C] |[M:13/16] C,-<C,C, z G3/2G,, | %16
[M:5/8] C,-C,- C,3 |] %17
V:3
 x6 | x6 | x6 | x6 | x6 | x6 | x6 | x6 | x6 | x6 | x6 | x6 | x6 | x6 |[M:7/8] x7 | %15
[M:13/16] z/ z/ z/ z/ z [G,B,]/-[G,B,]-<[G,B,] z |[M:5/8] x5 |] %17
V:4
 x6 | x6 | x6 | x6 | x6 | x6 | x6 | x6 | x6 | x6 | x6 | x6 | x6 | x6 | %14
[M:7/8][K:treble] x6[K:bass] x |[M:13/16] z/ z/ z/ z/ z G,,/-G,,-<G,, z |[M:5/8] x5 |] %17

